static/assets/images/icons/dedotfi-simple.svg

<svg width="256" height="256" viewBox="0 0 256 256" fill="none" xmlns="http://www.w3.org/2000/svg">
<path d="M223.76 160.174C223.71 173.892 215.187 185.701 203.319 192.251C186.287 201.653 169.253 211.054 152.218 220.455C148.147 222.702 145.18 224.197 143.316 224.942C133.134 228.996 122.943 229.019 112.744 225.012C110.834 224.26 107.861 222.772 103.827 220.545C87.7404 211.675 71.6584 202.797 55.5815 193.911C51.5107 191.661 48.6731 189.933 47.0687 188.727C39.2965 182.885 34.4884 175.145 32.6444 165.507C32.2084 163.231 31.9953 160.077 32.0053 156.046C32.0453 137.463 32.0436 118.883 32.0003 100.306C31.9903 96.0619 32.205 92.7803 32.6444 90.4606C34.3985 81.2553 38.9021 73.7465 46.155 67.9341C47.8959 66.5384 50.7052 64.7671 54.5829 62.6203C71.8282 53.0627 89.0967 43.5466 106.389 34.0721C118.067 27.6716 129.9 25.9817 142.537 30.6874C144.567 31.4451 147.55 32.9106 151.484 35.084C168.493 44.4655 185.503 53.8453 202.516 63.2235C213.555 69.3149 220.944 78.1082 223.246 90.4507C223.665 92.7005 223.875 96.0104 223.875 100.38C223.868 120.313 223.83 140.244 223.76 160.174ZM58.7969 157.621C58.5922 164.321 61.7576 166.729 67.075 169.675C84.8761 179.535 102.691 189.375 120.518 199.195C125.566 201.982 130.554 201.792 135.507 199.075C153.767 189.059 172.001 179 190.208 168.897C195.93 165.722 197.078 162.836 197.058 156.041C197.002 138.428 197.02 120.815 197.113 103.202C197.123 101.622 196.999 99.6776 197.029 97.908C197.128 90.7149 193.169 88.6761 187.268 85.411C170.312 76.0229 153.338 66.6564 136.346 57.3114C129.391 53.4831 125.257 54.2208 118.516 57.9246C101.158 67.4622 83.8143 77.0248 66.4858 86.6123C62.4067 88.8655 59.5758 91.0439 58.9267 95.4555C58.4524 98.6806 58.8568 103.461 58.8618 106.143C58.8618 123.246 59.3161 140.538 58.7969 157.621Z" fill="black"/>
</svg>

<svg xmlns="http://www.w3.org/2000/svg" fill="none" viewBox="0 0 256 256"><path fill="#000" d="M223.76 160.174c-.05 13.718-8.573 25.527-20.441 32.077q-25.548 14.103-51.101 28.204-6.106 3.37-8.902 4.487-15.273 6.08-30.572.07-2.865-1.127-8.917-4.467a54149 54149 0 0 1-48.245-26.634q-6.107-3.375-8.513-5.184-11.658-8.763-14.425-23.22-.654-3.414-.639-9.461.06-27.874-.005-55.74-.015-6.366.644-9.845 2.632-13.808 13.511-22.527 2.61-2.094 8.428-5.314a12217 12217 0 0 1 51.806-28.548c11.678-6.4 23.511-8.09 36.148-3.385q3.046 1.137 8.947 4.397 25.513 14.072 51.032 28.14c11.039 6.09 18.428 14.884 20.73 27.227q.629 3.375.629 9.929-.01 29.9-.115 59.794m-164.963-2.553c-.205 6.7 2.96 9.108 8.278 12.054q26.702 14.79 53.443 29.52c5.048 2.787 10.036 2.597 14.989-.12a12782 12782 0 0 0 54.701-30.178c5.722-3.175 6.87-6.061 6.85-12.856q-.084-26.42.055-52.839c.01-1.58-.114-3.524-.084-5.294.099-7.193-3.86-9.232-9.761-12.497a20453 20453 0 0 0-50.922-28.1c-6.955-3.828-11.089-3.09-17.83.614Q92.478 72.23 66.486 86.612c-4.08 2.254-6.91 4.432-7.56 8.844-.474 3.225-.07 8.005-.064 10.687 0 17.103.454 34.395-.065 51.478"/></svg>
